**kern	**kern
*part1	*part1
*staff2	*staff1
*I"Piano	*
*I'Pno.	*
*clefF4	*clefG2
*k[]	*k[]
*M2/4	*M2/4
=1	=1
4r	2c 2cc
4c	.
=2	=2
8r	2c 2g
4C	.
8C 8c	.
=3	=3
16r	2c 2f
4FF	.
8F 8c	.
16FF 16F	.
=4	=4
32r	2c 2a
4F	.
8FF 8c	.
16F 16f	.
32FF	.
=5	=5
32r	2c 2e
4CCC	.
8G 8c	.
16CC 16C	.
32C 32G	.
=6	=6
4AAA-X	2c 2e-X
8A-X 8c	.
16AAA- 16AA-X	.
32E-X 32A-	.
32AA- 32E-	.
!!linebreak:original
=7	=7
4E-X	2c 2a-X
8AA-X 8c	.
16E- 16e-X	.
16AAA-X 16AA-	.
32A-X 32g-X	16r
32AAA- 32AA- 32A-	.
==	==
*-	*-
!!!system-decoration: {(s1,s2)}
